X: 20414
T: CORONATION HORNPIPE
C:
%R: hornpipe, reel
B: Elias Howe "The Musician's Companion" 1843 p.41 #4
S: http://imslp.org/wiki/The_Musician's_Companion_(Howe,_Elias)
Z: 2015 John Chambers <jc:trillian.mit.edu>
N: The book has K:D (two sharps), which is clearly wrong.
M: 2/4
L: 1/16
K: G
% - - - - - - - - - - - - - - - - - - - - - - - - -
(3(DEF) |\
GABG EFGE | ABcA FGAF | GBdg ecAG | FGAF DEFD |\
GABG EFGE | ABcA FGAF | GBdg ecAF | G2G2G2 :|
|: Bc |\
dedc BcdB | efed cdef | gfgd ecAF | FGAF DEFD |\
GABG EFGE | ABcA FGAF | GBdg ecAF | G2G2G2 :|
% - - - - - - - - - - - - - - - - - - - - - - - - -

%%sep 1 1 500

